X:7
%%etbk:tnset id:3,pos:2,rep:3x,ant:
%%etbk:wsite http://www.thesession.org/tunes/display/541
%%etbk:skill ?
%%etbk:pldat 2013-11-18T17:57,2013-11-06T16:27,2013-10-05T14:57,2013-09-01T15:23,2013-08-28T15:31,2013-05-02T18:48,2013-05-01T16:57
T: Paddy Canny's Toast
Z: Piano Box Version by Martin Fleischmann
H: Created 2013-02-19 /  Last Modified 2013-10-05
M: 4/4
L: 1/8
R: Reel
K: Gdor
|:"gm"!1!G2 !4!cG !5!dGcG| "F"!2!FF !4!AF CFAF| "gm"!1!G2 cG dGcG| "dm"!4!e!5!f!2!c!1!A !3!d!1!A!2!c!1!A|
"gm"!1!G2 cG dGcG| "F"FF AF CFCF| "gm"!1!D3!3!G !1!G!2!A!3!B!5!d| "dm"!2!cA!5!fA (3cdc AB:||
|:"gm"!1!G2 !4!g!5!a !4!g!1!d!3!B!2!A|!1!G2 !4!g!2!e fgeg| "B"!3!f!1!B!2!B{d}B !1!F!2!B!1!D!2!B|!5!f2!2!BB !5!f!3!d!2!c!1!A|
"gm"!1!G2 ga gdBA|G2 !4!g!5!a !3!b!1!g!2!a!1!g| "dm"!3!fffg !5!afge|!3!f!1!d!4!c!2!A !3!B!1!G!2!A!1!F:||
